dist/assets/note_alt.svg

<svg width="20" height="21" viewBox="0 0 20 21" fill="none" xmlns="http://www.w3.org/2000/svg">
<g id="note_alt">
<mask id="mask0_0_871" style="mask-type:alpha" maskUnits="userSpaceOnUse" x="0" y="0" width="20" height="21">
<rect id="Bounding box" y="0.5" width="20" height="20" fill="#D9D9D9"/>
</mask>
<g mask="url(#mask0_0_871)">
<path id="note_alt_2" d="M6.00497 14.495H7.50497L12.4108 9.58925L10.9108 8.08925L6.00497 12.995V14.495ZM13.1191 8.88092L13.8691 8.13092C13.9802 8.01981 14.0358 7.90175 14.0358 7.77675C14.0358 7.65175 13.9802 7.5337 13.8691 7.42259L13.0774 6.63092C12.9663 6.51981 12.8483 6.46425 12.7233 6.46425C12.5983 6.46425 12.4802 6.51981 12.3691 6.63092L11.6191 7.38092L13.1191 8.88092ZM4.55978 17.6694C4.08426 17.6694 3.67718 17.5001 3.33856 17.1615C2.99992 16.8228 2.8306 16.4158 2.8306 15.9402V5.05981C2.8306 4.58429 2.99992 4.17721 3.33856 3.83858C3.67718 3.49995 4.08426 3.33063 4.55978 3.33063H7.95787C8.09223 2.89343 8.3448 2.53413 8.71558 2.25273C9.08634 1.97133 9.51448 1.83063 9.99999 1.83063C10.4855 1.83063 10.9136 1.97133 11.2844 2.25273C11.6552 2.53413 11.9078 2.89343 12.0421 3.33063H15.4402C15.9157 3.33063 16.3228 3.49995 16.6614 3.83858C17.0001 4.17721 17.1694 4.58429 17.1694 5.05981V15.9402C17.1694 16.4158 17.0001 16.8228 16.6614 17.1615C16.3228 17.5001 15.9157 17.6694 15.4402 17.6694H4.55978ZM4.55978 15.9402H15.4402V5.05981H4.55978V15.9402ZM9.99999 4.53988C10.156 4.53988 10.2849 4.48889 10.3869 4.38692C10.4889 4.28495 10.5398 4.15598 10.5398 4.00002C10.5398 3.84406 10.4889 3.7151 10.3869 3.61313C10.2849 3.51116 10.156 3.46017 9.99999 3.46017C9.84403 3.46017 9.71507 3.51116 9.6131 3.61313C9.51113 3.7151 9.46014 3.84406 9.46014 4.00002C9.46014 4.15598 9.51113 4.28495 9.6131 4.38692C9.71507 4.48889 9.84403 4.53988 9.99999 4.53988Z" fill="#0073E6"/>
</g>
</g>
</svg>

<svg xmlns="http://www.w3.org/2000/svg" width="20" height="21" fill="none"><mask id="a" width="20" height="21" x="0" y="0" maskUnits="userSpaceOnUse" style="mask-type:alpha"><path fill="#D9D9D9" d="M0 .5h20v20H0z"/></mask><g mask="url(#a)"><path fill="#0073E6" d="M6.005 14.495h1.5l4.906-4.906-1.5-1.5-4.906 4.906v1.5Zm7.114-5.614.75-.75a.498.498 0 0 0 .167-.354.498.498 0 0 0-.167-.354l-.792-.792a.498.498 0 0 0-.354-.167.498.498 0 0 0-.354.167l-.75.75 1.5 1.5Zm-8.56 8.788c-.475 0-.882-.169-1.22-.508a1.665 1.665 0 0 1-.508-1.22V5.06c0-.476.169-.883.508-1.221a1.665 1.665 0 0 1 1.22-.508h3.399c.134-.438.387-.797.758-1.078.37-.282.798-.422 1.284-.422s.914.14 1.284.422c.371.281.624.64.758 1.078h3.398c.476 0 .883.169 1.221.508.34.338.508.745.508 1.22V15.94c0 .476-.169.883-.508 1.222a1.665 1.665 0 0 1-1.22.507H4.56Zm0-1.729H15.44V5.06H4.56v10.88ZM10 4.54a.524.524 0 0 0 .54-.54.524.524 0 0 0-.54-.54.524.524 0 0 0-.54.54.524.524 0 0 0 .54.54Z"/></g></svg>
